logo/telegram.svg

<svg xmlns="http://www.w3.org/2000/svg" viewBox="0 0 24 24"><path d="M12 24C18.6274 24 24 18.6274 24 12C24 5.37258 18.6274 0 12 0C5.37258 0 0 5.37258 0 12C0 18.6274 5.37258 24 12 24Z" fill="url(#paint0_linear_602_2)"/><path fill-rule="evenodd" clip-rule="evenodd" d="M5.42537 11.871C8.92246 10.3522 11.2505 9.34307 12.4195 8.85348C15.7468 7.46464 16.4462 7.22484 16.8958 7.21484C16.9957 7.21484 17.2155 7.23483 17.3654 7.35473C17.4853 7.45464 17.5153 7.58454 17.5353 7.68445C17.5553 7.78437 17.5752 7.99419 17.5553 8.15406C17.3754 10.0525 16.5961 14.6586 16.1964 16.7769C16.0265 17.6761 15.6968 17.9759 15.3771 18.0059C14.6777 18.0658 14.1481 17.5462 13.4787 17.1066C12.4195 16.4172 11.83 15.9875 10.8009 15.3081C9.61188 14.5287 10.3812 14.0991 11.0607 13.3997C11.2405 13.2198 14.308 10.4222 14.3679 10.1724C14.3779 10.1424 14.3779 10.0225 14.308 9.96255C14.238 9.9026 14.1381 9.92259 14.0582 9.94257C13.9483 9.96255 12.2697 11.0816 9.00239 13.2898C8.52279 13.6195 8.09315 13.7794 7.70347 13.7694C7.27383 13.7594 6.45452 13.5296 5.83503 13.3297C5.08566 13.0899 4.48616 12.9601 4.53611 12.5404C4.56609 12.3206 4.86584 12.1008 5.42537 11.871Z" fill="white"/><defs><linearGradient id="paint0_linear_602_2" x1="11.99" y1="0" x2="11.99" y2="23.8102" gradientUnits="userSpaceOnUse"><stop stop-color="#2AABEE"/><stop offset="1" stop-color="#229ED9"/></linearGradient></defs></svg>

<svg xmlns="http://www.w3.org/2000/svg" viewBox="0 0 24 24"><path d="M12 24c6.627 0 12-5.373 12-12S18.627 0 12 0 0 5.373 0 12s5.373 12 12 12Z" fill="url(#a)"/><path fill-rule="evenodd" clip-rule="evenodd" d="M5.425 11.871a796.414 796.414 0 0 1 6.994-3.018c3.328-1.388 4.027-1.628 4.477-1.638.1 0 .32.02.47.14.12.1.15.23.17.33.02.1.04.31.02.47-.18 1.898-.96 6.504-1.36 8.622-.17.9-.5 1.199-.819 1.229-.7.06-1.229-.46-1.898-.9-1.06-.689-1.649-1.119-2.678-1.798-1.19-.78-.42-1.209.26-1.908.18-.18 3.247-2.978 3.307-3.228.01-.03.01-.15-.06-.21-.07-.06-.17-.04-.25-.02-.11.02-1.788 1.14-5.056 3.348-.48.33-.909.49-1.299.48-.43-.01-1.248-.24-1.868-.44-.75-.24-1.349-.37-1.299-.79.03-.22.33-.44.89-.669Z" fill="#fff"/><defs><linearGradient id="a" x1="11.99" y1="0" x2="11.99" y2="23.81" gradientUnits="userSpaceOnUse"><stop stop-color="#2AABEE"/><stop offset="1" stop-color="#229ED9"/></linearGradient></defs></svg>
